X:1
T:Title
%%score { ( 1 3 ) | 2 }
L:1/8
M:4/4
K:G
V:1 treble nm="Grand Piano"
V:3 treble 
V:2 bass 
V:1
 z4 z2[Q:1/4=118] [B,D]2 | [DB]2 [DB]2 [CA]2 [B,G]2 | [DB]2 [B,G]2 [B,D]2 D2 | F2 G2 [FA]2 [GB]2 | %4
[M:3/4] [Fc]6 |[M:1/4] c2 |[M:4/4] B2 G2 A2 B2 | [Ec]2 [CE]2 [EA]2 [EG]2 | F2 D2 E2 F2 | %9
[M:3/4] [G,B,G]6 |[M:1/4] [DGB]2 |[M:4/4] [DBd]2 [DBd]2 [DAc]2 [DGB]2 | [FA]6 z2 | %13
 [DAc]2 [A,DF]2 [G,DG]2 A2 |[M:3/4] B6 |[M:1/4] D2 |[M:4/4] [DB]2 [B,G]2 [CA]2 [DB]2 | %17
 [Ec]2 [CE]2 [CA]2 [EG]2 | F2 D2 E2 F2 |[M:3/4] [B,G]6 |] %20
V:2
 z4 z2 [G,,G,]2 | [G,,G,]2 [G,,G,]2 [G,,G,]2 [G,,G,]2 | [G,,G,]2 [G,,G,]2 [G,,G,]2 [B,,G,]2 | %3
 [D,A,D]2 [D,B,D]2 [D,D]2 [D,D]2 |[M:3/4] [D,A,]6 |[M:1/4] [D,F,D]2 | %6
[M:4/4] [G,D]2 [G,B,]2 [G,C]2 [G,D]2 | [C,G,]2 [C,G,]2 [C,E,]2 [^C,A,]2 | %8
 [D,A,D]2 [D,F,]2 [D,G,^C]2 [D,A,=C]2 |[M:3/4] G,,6 |[M:1/4] G,2 |[M:4/4] G,2 G,2 F,2 G,2 | %12
 D,2 D,2 D,2 D,2 | D,2 C,2 B,,2 [D,F,D]2 |[M:3/4] [G,D]6 |[M:1/4] [G,B,]2 | %16
[M:4/4] [G,,G,]2 [G,,G,]2 [G,,G,]2 [G,,G,]2 | [C,G,]2 [C,G,]2 [C,E,]2 [^C,A,]2 | %18
 [D,A,D]2 [D,F,]2 [D,G,^C]2 [D,A,=C]2 |[M:3/4] [G,,G,]6 |] %20
V:3
 x8 | x8 | x8 | x8 |[M:3/4] x6 |[M:1/4] x2 |[M:4/4] x8 | x8 | x8 |[M:3/4] x6 |[M:1/4] x2 | %11
[M:4/4] x8 | D2 D2 D2 [DGB]2 | x8 |[M:3/4] x6 |[M:1/4] x2 |[M:4/4] x8 | x8 | x8 |[M:3/4] x6 |] %20

